images/heart.svg

<svg width="30" height="30" viewBox="0 0 30 30" fill="none" xmlns="http://www.w3.org/2000/svg">
<g id="Icon/Outline/heart">
<path id="Mask" fill-rule="evenodd" clip-rule="evenodd" d="M9.02463 7.5C7.94463 7.5 6.93213 7.9175 6.17463 8.67625C4.60213 10.2512 4.60213 12.815 6.17588 14.3925L14.9996 23.2313L23.8246 14.3925C25.3984 12.815 25.3984 10.2512 23.8246 8.67625C22.3096 7.1575 19.6396 7.16 18.1246 8.67625L15.8846 10.92C15.4146 11.3913 14.5846 11.3913 14.1146 10.92L11.8746 8.675C11.1171 7.9175 10.1059 7.5 9.02463 7.5ZM14.9996 26.25C14.6684 26.25 14.3496 26.1187 14.1159 25.8825L4.40588 16.1575C1.86088 13.6075 1.86088 9.45875 4.40588 6.90875C5.63588 5.67875 7.27588 5 9.02463 5C10.7734 5 12.4146 5.67875 13.6434 6.90875L14.9996 8.2675L16.3559 6.91C17.5859 5.67875 19.2259 5 20.9759 5C22.7234 5 24.3646 5.67875 25.5934 6.90875C28.1396 9.45875 28.1396 13.6075 25.5946 16.1575L15.8846 25.8838C15.6496 26.1188 15.3321 26.25 14.9996 26.25Z" fill="#231F20"/>
<mask id="mask0_1_48" style="mask-type:alpha" maskUnits="userSpaceOnUse" x="2" y="5" width="26" height="22">
<path id="Mask_2" fill-rule="evenodd" clip-rule="evenodd" d="M9.02463 7.5C7.94463 7.5 6.93213 7.9175 6.17463 8.67625C4.60213 10.2512 4.60213 12.815 6.17588 14.3925L14.9996 23.2313L23.8246 14.3925C25.3984 12.815 25.3984 10.2512 23.8246 8.67625C22.3096 7.1575 19.6396 7.16 18.1246 8.67625L15.8846 10.92C15.4146 11.3913 14.5846 11.3913 14.1146 10.92L11.8746 8.675C11.1171 7.9175 10.1059 7.5 9.02463 7.5ZM14.9996 26.25C14.6684 26.25 14.3496 26.1187 14.1159 25.8825L4.40588 16.1575C1.86088 13.6075 1.86088 9.45875 4.40588 6.90875C5.63588 5.67875 7.27588 5 9.02463 5C10.7734 5 12.4146 5.67875 13.6434 6.90875L14.9996 8.2675L16.3559 6.91C17.5859 5.67875 19.2259 5 20.9759 5C22.7234 5 24.3646 5.67875 25.5934 6.90875C28.1396 9.45875 28.1396 13.6075 25.5946 16.1575L15.8846 25.8838C15.6496 26.1188 15.3321 26.25 14.9996 26.25Z" fill="white"/>
</mask>
<g mask="url(#mask0_1_48)">
</g>
</g>
</svg>

<svg width="30" height="30" fill="none" xmlns="http://www.w3.org/2000/svg"><path fill-rule="evenodd" clip-rule="evenodd" d="M9.025 7.5c-1.08 0-2.093.418-2.85 1.176a4.052 4.052 0 0 0 0 5.716L15 23.233l8.825-8.84a4.05 4.05 0 0 0 0-5.716c-1.515-1.519-4.185-1.516-5.7 0l-2.24 2.244c-.47.471-1.3.471-1.77 0l-2.24-2.245A4 4 0 0 0 9.025 7.5zM15 26.25c-.332 0-.65-.131-.884-.367l-9.71-9.726a6.556 6.556 0 0 1 0-9.248A6.487 6.487 0 0 1 9.025 5c1.748 0 3.39.679 4.618 1.909L15 8.268l1.356-1.358A6.484 6.484 0 0 1 20.976 5c1.747 0 3.389.679 4.617 1.909a6.555 6.555 0 0 1 .002 9.248l-9.71 9.727a1.25 1.25 0 0 1-.885.366z" fill="#231F20"/><mask id="a" style="mask-type:alpha" maskUnits="userSpaceOnUse" x="2" y="5" width="26" height="22"><path fill-rule="evenodd" clip-rule="evenodd" d="M9.025 7.5c-1.08 0-2.093.418-2.85 1.176a4.052 4.052 0 0 0 0 5.716L15 23.233l8.825-8.84a4.05 4.05 0 0 0 0-5.716c-1.515-1.519-4.185-1.516-5.7 0l-2.24 2.244c-.47.471-1.3.471-1.77 0l-2.24-2.245A4 4 0 0 0 9.025 7.5zM15 26.25c-.332 0-.65-.131-.884-.367l-9.71-9.726a6.556 6.556 0 0 1 0-9.248A6.487 6.487 0 0 1 9.025 5c1.748 0 3.39.679 4.618 1.909L15 8.268l1.356-1.358A6.484 6.484 0 0 1 20.976 5c1.747 0 3.389.679 4.617 1.909a6.555 6.555 0 0 1 .002 9.248l-9.71 9.727a1.25 1.25 0 0 1-.885.366z" fill="#fff"/></mask></svg>
